X: 18740
T: Idle Bairn, The
R: hornpipe
M: 4/4
K: Dmajor
|:AG|FAde fedc|BdcB A2FG|Adcd gfed|cdBc A2AG|
FAde fedc|BdcB A2FG|Adfd cABc|d2f2 d2:|
|:AG|FGAF D2dc|Bdgf edcB|Adcd gfed|caBg AfGe|
dcdA fedc|BdcB A2FG|Adfd cABc|d2f2 d2:|

